assets/images/tools/excalidraw.svg

<svg fill="none" height="100" viewBox="0 0 100 100" width="100" xmlns="http://www.w3.org/2000/svg"><path d="m50 0c27.6142 0 50 22.3858 50 50s-22.3858 50-50 50-50-22.3858-50-50 22.3858-50 50-50z" fill="#6965db"/><path clip-rule="evenodd" d="m35.2632 28.9474c-2.8948 0-5.2632 2.3684-5.2632 5.2631v31.579c0 2.8947 2.3684 5.2631 5.2632 5.2631h29.4736c2.8948 0 5.2632-2.3684 5.2632-5.2631v-31.579c0-2.8947-2.3684-5.2631-5.2632-5.2631zm5.7894 10.5263c0-1.4474 1.1842-2.6316 2.6316-2.6316h12.6316c1.4474 0 2.6316 1.1842 2.6316 2.6316s-1.1842 2.6316-2.6316 2.6316h-12.6316c-1.4474 0-2.6316-1.1842-2.6316-2.6316zm2.6316 7.8947c-1.4474 0-2.6316 1.1842-2.6316 2.6316s1.1842 2.6316 2.6316 2.6316h12.6316c1.4474 0 2.6316-1.1842 2.6316-2.6316s-1.1842-2.6316-2.6316-2.6316zm-2.6316 13.1579c0-1.4474 1.1842-2.6316 2.6316-2.6316h12.6316c1.4474 0 2.6316 1.1842 2.6316 2.6316s-1.1842 2.6316-2.6316 2.6316h-12.6316c-1.4474 0-2.6316-1.1842-2.6316-2.6316z" fill="#fff" fill-rule="evenodd"/></svg>

<?xml version="1.0" encoding="UTF-8"?>
<svg width="100" height="100" viewBox="0 0 100 100" fill="none" xmlns="http://www.w3.org/2000/svg">
    <path d="M50 0C77.6142 0 100 22.3858 100 50C100 77.6142 77.6142 100 50 100C22.3858 100 0 77.6142 0 50C0 22.3858 22.3858 0 50 0Z" fill="#6965DB"/>
    <path fill-rule="evenodd" clip-rule="evenodd" d="M35.2632 28.9474C32.3684 28.9474 30 31.3158 30 34.2105V65.7895C30 68.6842 32.3684 71.0526 35.2632 71.0526H64.7368C67.6316 71.0526 70 68.6842 70 65.7895V34.2105C70 31.3158 67.6316 28.9474 64.7368 28.9474H35.2632ZM41.0526 39.4737C41.0526 38.0263 42.2368 36.8421 43.6842 36.8421H56.3158C57.7632 36.8421 58.9474 38.0263 58.9474 39.4737C58.9474 40.9211 57.7632 42.1053 56.3158 42.1053H43.6842C42.2368 42.1053 41.0526 40.9211 41.0526 39.4737ZM43.6842 47.3684C42.2368 47.3684 41.0526 48.5526 41.0526 50C41.0526 51.4474 42.2368 52.6316 43.6842 52.6316H56.3158C57.7632 52.6316 58.9474 51.4474 58.9474 50C58.9474 48.5526 57.7632 47.3684 56.3158 47.3684H43.6842ZM41.0526 60.5263C41.0526 59.0789 42.2368 57.8947 43.6842 57.8947H56.3158C57.7632 57.8947 58.9474 59.0789 58.9474 60.5263C58.9474 61.9737 57.7632 63.1579 56.3158 63.1579H43.6842C42.2368 63.1579 41.0526 61.9737 41.0526 60.5263Z" fill="white"/>
</svg>
